images/ssae-logo.svg

<?xml version="1.0" encoding="UTF-8"?>
<svg fill="none" viewBox="0 0 27 28" xmlns="http://www.w3.org/2000/svg">
<g clip-rule="evenodd" fill-rule="evenodd">
<path d="m1.9781 7.5312c0.93646 3.6177 1.3823 5.1349 2.544 8.716 1.1147 3.4379 2.9839 6.1691 5.5569 8.118 1.5091 1.143 2.8318 1.6672 3.3418 1.8424 0.5092-0.1752 1.8319-0.6994 3.341-1.8424 2.573-1.9489 4.4422-4.6801 5.5569-8.118 1.1616-3.5811 1.6075-5.0983 2.5439-8.716-1.8222-1.1355-7.9487-4.8538-11.442-5.7612-3.4939 0.90738-9.6197 4.6257-11.443 5.7612zm11.443 20.469-0.2207-0.0582c-0.0761-0.0201-1.9035-0.5159-4.0859-2.1495-1.9915-1.4904-4.689-4.264-6.2287-9.0142-1.2384-3.8182-1.6716-5.3154-2.7304-9.4258l-0.15508-0.60244 0.52341-0.33551c0.3385-0.21772 8.3536-5.3452 12.7-6.3674l0.1976-0.046972 0.1968 0.046972c4.3461 1.0222 12.361 6.1496 12.7 6.3674l0.5234 0.33551-0.155 0.60244c-1.0588 4.1104-1.4927 5.6076-2.7304 9.4258-1.5404 4.7502-4.2379 7.5238-6.2294 9.0142-2.1816 1.6336-4.0091 2.1294-4.0859 2.1495l-0.2199 0.0582z" fill="#C8CCD7"/>
<path d="m9.5958 18.947c-0.02013 0.1715-0.08351 0.3035-0.19013 0.3967-0.10587 0.0932-0.24753 0.1401-0.42424 0.1401-0.19162 0-0.34521-0.0686-0.46078-0.2065-0.11556-0.1372-0.17297-0.3206-0.17297-0.551v-0.1558c0-0.1506 0.02684-0.2834 0.08052-0.3974 0.05443-0.1141 0.13048-0.2021 0.2289-0.2632 0.09916-0.0612 0.21324-0.0917 0.34297-0.0917 0.17223 0 0.31017 0.0477 0.41455 0.1439 0.10364 0.0962 0.16403 0.2296 0.18118 0.3996h-0.21473c-0.01864-0.1297-0.0589-0.2237-0.12079-0.2818-0.06188-0.0582-0.14912-0.0873-0.26021-0.0873-0.13644 0-0.24381 0.0507-0.32135 0.1521-0.07754 0.1007-0.11631 0.2446-0.11631 0.431v0.1573c0 0.176 0.03728 0.3161 0.11034 0.4198 0.07382 0.1036 0.17671 0.1558 0.30868 0.1558 0.11855 0 0.20951-0.0268 0.27289-0.0805 0.06337-0.0537 0.10587-0.1476 0.12675-0.2811h0.21473z" fill="#000"/>
<path d="m10.006 18.872c0 0.1335 0.0313 0.2408 0.0932 0.3221 0.0619 0.0805 0.1446 0.1208 0.2483 0.1208 0.1051 0 0.1879-0.041 0.2498-0.123 0.0618-0.082 0.0924-0.1969 0.0924-0.3445 0-0.132-0.0313-0.2393-0.0939-0.3213-0.0627-0.0821-0.1462-0.1231-0.2506-0.1231-0.1014 0-0.1834 0.041-0.246 0.1216-0.0619 0.0812-0.0932 0.1968-0.0932 0.3474zm-0.20727-0.0246c0-0.1178 0.02311-0.2244 0.07008-0.3184 0.04623-0.0939 0.11035-0.167 0.19309-0.2184 0.0828-0.0507 0.1775-0.0768 0.2833-0.0768 0.1641 0 0.2968 0.0574 0.3982 0.1707 0.1014 0.1134 0.1521 0.2647 0.1521 0.4533v0.0142c0 0.1171-0.0224 0.2222-0.0671 0.3154s-0.1096 0.1663-0.1931 0.2177c-0.0835 0.0522-0.179 0.0783-0.2878 0.0783-0.1633 0-0.2953-0.0567-0.39667-0.1707-0.1014-0.1134-0.1521-0.264-0.1521-0.4504v-0.0149z" fill="#000"/>
<path d="m11.349 18.256 6e-3 0.1334c0.0879-0.1036 0.2072-0.1558 0.3571-0.1558 0.1685 0 0.2833 0.0649 0.3437 0.1938 0.0403-0.0581 0.0925-0.1043 0.1566-0.1401s0.1402-0.0537 0.2274-0.0537c0.2647 0 0.3989 0.1402 0.4034 0.4198v0.8074h-0.2058v-0.7948c0-0.0865-0.0201-0.1506-0.0589-0.1938-0.0395-0.0425-0.1059-0.0634-0.1983-0.0634-0.0768 0-0.1402 0.0224-0.1909 0.0679-0.05 0.0462-0.0798 0.1073-0.088 0.1849v0.7992h-0.2065v-0.7896c0-0.1752-0.0858-0.2624-0.2573-0.2624-0.1349 0-0.2274 0.0574-0.2773 0.1722v0.8798h-0.2058v-1.2048h0.1946z" fill="#000"/>
<path d="m13.964 18.849c0-0.1357-0.0291-0.243-0.0872-0.3221-0.0575-0.0782-0.1372-0.1178-0.2379-0.1178-0.1245 0-0.2184 0.0552-0.2803 0.1663v0.5756c0.0611 0.1096 0.1558 0.1648 0.2826 0.1648 0.0984 0 0.1774-0.0395 0.2356-0.1178 0.0581-0.0783 0.0872-0.1946 0.0872-0.349zm0.2058 0.0232c0 0.1834-0.0418 0.331-0.126 0.4436-0.0835 0.1118-0.1969 0.1677-0.34 0.1677-0.1469 0-0.2617-0.0462-0.3452-0.1386v0.5793h-0.2066v-1.6672h0.1887l0.0097 0.1335c0.0842-0.1044 0.2005-0.1558 0.3497-0.1558 0.1446 0 0.2594 0.0544 0.3437 0.1633 0.0842 0.1096 0.126 0.2609 0.126 0.4555v0.0187z" fill="#000"/>
<path d="m14.452 19.461h0.2058v-1.7104h-0.2058v1.7104z" fill="#000"/>
<path d="m15.009 19.461h0.276v-1.2049h-0.276v1.2049zm-0.023-1.5248c0-0.0328 0.014-0.0611 0.041-0.0842s0.068-0.0343 0.122-0.0343 0.094 0.0112 0.122 0.0343 0.042 0.0514 0.042 0.0842c0 0.0336-0.014 0.0612-0.042 0.0835-0.028 0.0224-0.068 0.0336-0.122 0.0336s-0.095-0.0112-0.122-0.0336c-0.027-0.0223-0.041-0.0499-0.041-0.0835z" fill="#000"/>
<path d="m15.943 19.304c0.0652 0 0.1267-0.0164 0.1845-0.0499 0.0585-0.0336 0.1005-0.0768 0.1268-0.1305v-0.2468h-0.162c-0.2544 0-0.3811 0.0738-0.3811 0.2214 0 0.0642 0.0217 0.1149 0.0652 0.1514 0.0428 0.0365 0.0983 0.0544 0.1666 0.0544zm0.3436 0.1573c-0.0113-0.0238-0.0211-0.0663-0.0286-0.1275-0.0967 0.0999-0.2115 0.1492-0.345 0.1492-0.1201 0-0.2176-0.0336-0.2941-0.1007s-0.1148-0.1521-0.1148-0.255c0-0.126 0.048-0.2229 0.144-0.2923 0.0953-0.0693 0.2303-0.1043 0.4044-0.1043h0.2018v-0.0947c0-0.0724-0.0218-0.129-0.0645-0.1723-0.0435-0.0425-0.1073-0.0633-0.1921-0.0633-0.0735 0-0.1358 0.0178-0.186 0.0551-0.0495 0.0373-0.075 0.082-0.075 0.135h-0.2078c0-0.0604 0.021-0.1186 0.0637-0.1745 0.0435-0.0559 0.1013-0.0999 0.1748-0.1327s0.1546-0.0492 0.2431-0.0492c0.1395 0 0.249 0.035 0.3278 0.1044 0.0795 0.0693 0.12 0.1647 0.123 0.2863v0.5547c0 0.1103 0.0143 0.1983 0.0428 0.2639v0.0179h-0.2175z" fill="#000"/>
<path d="m16.974 18.256 0.0067 0.1513c0.0917-0.1156 0.2125-0.1737 0.3609-0.1737 0.2542 0 0.3825 0.1439 0.3847 0.4309v0.7963h-0.2058v-0.797c-7e-4 -0.0872-0.0201-0.1514-0.0596-0.1931-0.0388-0.0418-0.0992-0.0619-0.182-0.0619-0.0663 0-0.1252 0.0179-0.1759 0.0529-0.05 0.0358-0.0895 0.0828-0.1178 0.1402v0.8589h-0.2058v-1.2048h0.1946z" fill="#000"/>
<path d="m18.318 17.964v0.2915h0.2251v0.1595h-0.2251v0.7479c0 0.0484 0.0096 0.0842 0.0298 0.1088 0.0201 0.0239 0.0544 0.0358 0.1029 0.0358 0.0238 0 0.0559-0.0045 0.0976-0.0134v0.1663c-0.0544 0.0149-0.1066 0.0223-0.158 0.0223-0.0917 0-0.1611-0.0276-0.208-0.0835-0.047-0.0559-0.0701-0.1349-0.0701-0.2371v-0.7471h-0.2192v-0.1595h0.2192v-0.2915h0.2058z" fill="#000"/>
<path d="m7.1073 15.277c-0.31762-0.0917-0.5495-0.2036-0.69414-0.337-0.14465-0.1327-0.21697-0.2975-0.21697-0.4929 0-0.2214 0.08872-0.4048 0.26543-0.5495 0.1767-0.1446 0.40709-0.2169 0.69042-0.2169 0.19311 0 0.36459 0.0372 0.51595 0.1118 0.15135 0.0746 0.26841 0.1775 0.35117 0.3087 0.08351 0.1312 0.12452 0.2751 0.12452 0.4309h-0.37205c0-0.1707-0.05443-0.3049-0.16254-0.4026-0.10811-0.0969-0.26022-0.1461-0.45705-0.1461-0.18342 0-0.32583 0.0402-0.42797 0.1208-0.10215 0.0812-0.15359 0.1931-0.15359 0.3355 0 0.1148 0.04846 0.2117 0.14613 0.2915 0.09693 0.079 0.26245 0.1514 0.49582 0.2177 0.23337 0.0656 0.41604 0.138 0.54801 0.217s0.23039 0.1715 0.29377 0.2773c0.06337 0.1052 0.09543 0.2297 0.09543 0.3721 0 0.2281-0.08872 0.4108-0.26618 0.5473-0.17745 0.1372-0.41529 0.2057-0.71278 0.2057-0.19237 0-0.3728-0.0372-0.53981-0.111-0.16776-0.0739-0.29675-0.1753-0.38771-0.3042-0.09022-0.1283-0.1357-0.2744-0.1357-0.4377h0.3728c0 0.17 0.06263 0.3042 0.18789 0.4026s0.29302 0.1476 0.50253 0.1476c0.19609 0 0.34595-0.0402 0.45034-0.12 0.10438-0.0798 0.15582-0.1886 0.15582-0.3258 0-0.138-0.04771-0.2446-0.14464-0.3199-0.09618-0.0753-0.2714-0.1499-0.5249-0.2229z" fill="#000"/>
<path d="m9.453 15.277c-0.31763-0.0917-0.54951-0.2036-0.69415-0.337-0.14465-0.1327-0.21697-0.2975-0.21697-0.4929 0-0.2214 0.08873-0.4048 0.26543-0.5495 0.17671-0.1446 0.4071-0.2169 0.69042-0.2169 0.19311 0 0.3646 0.0372 0.516 0.1118 0.1513 0.0746 0.2684 0.1775 0.3511 0.3087 0.0835 0.1312 0.1245 0.2751 0.1245 0.4309h-0.372c0-0.1707-0.0544-0.3049-0.16255-0.4026-0.10811-0.0969-0.26021-0.1461-0.45705-0.1461-0.18342 0-0.32582 0.0402-0.42797 0.1208-0.10215 0.0812-0.15359 0.1931-0.15359 0.3355 0 0.1148 0.04846 0.2117 0.14613 0.2915 0.09693 0.079 0.26245 0.1514 0.49582 0.2177 0.23337 0.0656 0.41604 0.138 0.54801 0.217 0.132 0.079 0.2304 0.1715 0.2938 0.2773 0.0633 0.1052 0.0954 0.2297 0.0954 0.3721 0 0.2281-0.0887 0.4108-0.2662 0.5473-0.1774 0.1372-0.41527 0.2057-0.71276 0.2057-0.19236 0-0.3728-0.0372-0.53981-0.111-0.16776-0.0739-0.29674-0.1753-0.38771-0.3042-0.09021-0.1283-0.1357-0.2744-0.1357-0.4377h0.3728c0 0.17 0.06263 0.3042 0.18789 0.4026s0.29302 0.1476 0.50253 0.1476c0.19609 0 0.34596-0.0402 0.45034-0.12 0.10442-0.0798 0.15582-0.1886 0.15582-0.3258 0-0.138-0.0477-0.2446-0.14464-0.3199-0.09618-0.0753-0.27139-0.1499-0.52489-0.2229z" fill="#000"/>
<path d="m11.456 15.492h0.9558l-0.4786-1.3145-0.4772 1.3145zm1.0654 0.3027h-1.1773l-0.2646 0.7359h-0.3825l1.0736-2.8109h0.3244l1.0751 2.8109h-0.3803l-0.2684-0.7359z" fill="#000"/>
<path d="m15.138 15.231h-1.2183v0.9962h1.4151v0.3027h-1.7857v-2.8102h1.7663v0.3027h-1.3957v0.9059h1.2183v0.3027z" fill="#000"/>
<path d="m17.856 16.53h-0.3594v-2.38l-0.7195 0.264v-0.3244l1.023-0.3839h0.0559v2.8243z" fill="#000"/>
<path d="m19.779 13.974c-0.1401 0-0.2535 0.0433-0.3407 0.1305-0.0865 0.0865-0.1305 0.205-0.1305 0.3542 0 0.1424 0.0433 0.2579 0.1283 0.3467 0.0857 0.0879 0.1998 0.1319 0.3429 0.1319 0.1432 0 0.2573-0.044 0.343-0.1319 0.085-0.0888 0.1282-0.2043 0.1282-0.3467 0-0.1432-0.0447-0.2595-0.1334-0.3497s-0.2013-0.135-0.3378-0.135zm0.5369 1.7895c0-0.1566-0.05-0.2849-0.1499-0.384-0.0999-0.0992-0.2296-0.1484-0.3907-0.1484-0.161 0-0.29 0.0485-0.387 0.1461-0.0976 0.0977-0.1461 0.2267-0.1461 0.3863 0 0.1595 0.0477 0.2848 0.1424 0.3765 0.094 0.0917 0.2259 0.1372 0.3944 0.1372 0.167 0 0.2983-0.0463 0.3937-0.138 0.0954-0.0924 0.1432-0.2177 0.1432-0.3757zm0.2915-1.3108c0 0.1402-0.0373 0.2654-0.1111 0.3743-0.0738 0.1096-0.1745 0.1953-0.3005 0.2572 0.1469 0.0626 0.2632 0.1551 0.349 0.2759 0.085 0.1208 0.1282 0.258 0.1282 0.4108 0 0.2438-0.082 0.4369-0.246 0.5816-0.1641 0.1439-0.3803 0.2162-0.648 0.2162-0.2699 0-0.4868-0.0723-0.6494-0.2177-0.1633-0.1447-0.2445-0.3378-0.2445-0.5801 0-0.1513 0.0417-0.2885 0.1245-0.4108 0.0835-0.1223 0.1983-0.2147 0.3444-0.2781-0.1245-0.0619-0.2229-0.1469-0.2952-0.2565-0.0716-0.1096-0.1081-0.2334-0.1081-0.3728 0-0.2364 0.076-0.425 0.2281-0.5637 0.1514-0.1387 0.3519-0.2087 0.6002-0.2087 0.2468 0 0.4466 0.07 0.5995 0.2087 0.1521 0.1387 0.2289 0.3273 0.2289 0.5637z" fill="#000"/>
<path d="m12.92 10.068c-0.091 0-0.1774-0.0357-0.2416-0.09987l-1.5821-1.5822c-0.1335-0.13346-0.1335-0.35042 0-0.48389 0.1335-0.13346 0.3504-0.13346 0.4839 0l1.3398 1.3398 2.3397-2.3397c0.1342-0.13346 0.3504-0.13346 0.4839 0 0.1334 0.13346 0.1334 0.35043 0 0.48389l-2.582 2.582c-0.0641 0.06417-0.1506 0.09987-0.2416 0.09987z" fill="#5BB160"/>
</g>
</svg>

<svg width="27" height="28" viewBox="0 0 27 28" fill="none" xmlns="http://www.w3.org/2000/svg">
<g id="ssae-logo">
<path id="Fill 1" fill-rule="evenodd" clip-rule="evenodd" d="M1.97806 7.53123C2.91452 11.1489 3.36039 12.6661 4.52202 16.2472C5.63668 19.6851 7.50589 22.4163 10.0789 24.3652C11.588 25.5082 12.9107 26.0324 13.4207 26.2076C13.9299 26.0324 15.2526 25.5082 16.7617 24.3652C19.3347 22.4163 21.2039 19.6851 22.3186 16.2472C23.4802 12.6661 23.9261 11.1489 24.8625 7.53123C23.0403 6.3957 16.9138 2.67742 13.4207 1.77004C9.92682 2.67742 3.80103 6.3957 1.97806 7.53123ZM13.4207 28L13.2 27.9418C13.1239 27.9217 11.2965 27.4259 9.11413 25.7923C7.12265 24.3019 4.42509 21.5283 2.88544 16.7781C1.64701 12.9599 1.21383 11.4627 0.155083 7.35229L0 6.74985L0.523406 6.41434C0.861905 6.19662 8.87703 1.06918 13.2231 0.0469724L13.4207 0L13.6175 0.0469724C17.9636 1.06918 25.9787 6.19662 26.3179 6.41434L26.8413 6.74985L26.6863 7.35229C25.6275 11.4627 25.1936 12.9599 23.9559 16.7781C22.4155 21.5283 19.718 24.3019 17.7265 25.7923C15.5449 27.4259 13.7174 27.9217 13.6406 27.9418L13.4207 28Z" fill="#C8CCD7"/>
<path id="Fill 4" fill-rule="evenodd" clip-rule="evenodd" d="M9.59578 18.9467C9.57565 19.1182 9.51227 19.2502 9.40565 19.3434C9.29978 19.4366 9.15812 19.4835 8.98141 19.4835C8.78979 19.4835 8.6362 19.4149 8.52063 19.277C8.40507 19.1398 8.34766 18.9564 8.34766 18.726V18.5702C8.34766 18.4196 8.3745 18.2868 8.42818 18.1728C8.48261 18.0587 8.55866 17.9707 8.65708 17.9096C8.75624 17.8484 8.87032 17.8179 9.00005 17.8179C9.17228 17.8179 9.31022 17.8656 9.4146 17.9618C9.51824 18.058 9.57863 18.1914 9.59578 18.3614H9.38105C9.36241 18.2317 9.32215 18.1377 9.26026 18.0796C9.19838 18.0214 9.11114 17.9923 9.00005 17.9923C8.86361 17.9923 8.75624 18.043 8.6787 18.1444C8.60116 18.2451 8.56239 18.389 8.56239 18.5754V18.7327C8.56239 18.9087 8.59967 19.0488 8.67273 19.1525C8.74655 19.2561 8.84944 19.3083 8.98141 19.3083C9.09996 19.3083 9.19092 19.2815 9.2543 19.2278C9.31767 19.1741 9.36017 19.0802 9.38105 18.9467H9.59578Z" fill="black"/>
<path id="Fill 6" fill-rule="evenodd" clip-rule="evenodd" d="M10.0061 18.8721C10.0061 19.0056 10.0374 19.1129 10.0993 19.1942C10.1612 19.2747 10.2439 19.315 10.3476 19.315C10.4527 19.315 10.5355 19.274 10.5974 19.192C10.6592 19.11 10.6898 18.9951 10.6898 18.8475C10.6898 18.7155 10.6585 18.6082 10.5959 18.5262C10.5332 18.4441 10.4497 18.4031 10.3453 18.4031C10.2439 18.4031 10.1619 18.4441 10.0993 18.5247C10.0374 18.6059 10.0061 18.7215 10.0061 18.8721ZM9.79883 18.8475C9.79883 18.7297 9.82194 18.6231 9.86891 18.5291C9.91514 18.4352 9.97926 18.3621 10.062 18.3107C10.1448 18.26 10.2395 18.2339 10.3453 18.2339C10.5094 18.2339 10.6421 18.2913 10.7435 18.4046C10.8449 18.518 10.8956 18.6693 10.8956 18.8579V18.8721C10.8956 18.9892 10.8732 19.0943 10.8285 19.1875C10.7838 19.2807 10.7189 19.3538 10.6354 19.4052C10.5519 19.4574 10.4564 19.4835 10.3476 19.4835C10.1843 19.4835 10.0523 19.4268 9.95093 19.3128C9.84953 19.1994 9.79883 19.0488 9.79883 18.8624V18.8475Z" fill="black"/>
<path id="Fill 8" fill-rule="evenodd" clip-rule="evenodd" d="M11.3489 18.2563L11.3549 18.3897C11.4428 18.2861 11.5621 18.2339 11.712 18.2339C11.8805 18.2339 11.9953 18.2988 12.0557 18.4277C12.096 18.3696 12.1482 18.3234 12.2123 18.2876C12.2764 18.2518 12.3525 18.2339 12.4397 18.2339C12.7044 18.2339 12.8386 18.3741 12.8431 18.6537V19.4611H12.6373V18.6663C12.6373 18.5798 12.6172 18.5157 12.5784 18.4725C12.5389 18.43 12.4725 18.4091 12.3801 18.4091C12.3033 18.4091 12.2399 18.4315 12.1892 18.477C12.1392 18.5232 12.1094 18.5843 12.1012 18.6619V19.4611H11.8947V18.6715C11.8947 18.4963 11.8089 18.4091 11.6374 18.4091C11.5025 18.4091 11.41 18.4665 11.3601 18.5813V19.4611H11.1543V18.2563H11.3489Z" fill="black"/>
<path id="Fill 10" fill-rule="evenodd" clip-rule="evenodd" d="M13.9643 18.8487C13.9643 18.713 13.9352 18.6057 13.8771 18.5266C13.8196 18.4484 13.7399 18.4088 13.6392 18.4088C13.5147 18.4088 13.4208 18.464 13.3589 18.5751V19.1507C13.42 19.2603 13.5147 19.3155 13.6415 19.3155C13.7399 19.3155 13.8189 19.276 13.8771 19.1977C13.9352 19.1194 13.9643 19.0031 13.9643 18.8487ZM14.1701 18.8719C14.1701 19.0553 14.1283 19.2029 14.0441 19.3155C13.9606 19.4273 13.8472 19.4832 13.7041 19.4832C13.5572 19.4832 13.4424 19.437 13.3589 19.3446V19.9239H13.1523V18.2567H13.341L13.3507 18.3902C13.4349 18.2858 13.5512 18.2344 13.7004 18.2344C13.845 18.2344 13.9598 18.2888 14.0441 18.3977C14.1283 18.5073 14.1701 18.6586 14.1701 18.8532V18.8719Z" fill="black"/>
<path id="Fill 12" fill-rule="evenodd" clip-rule="evenodd" d="M14.4515 19.4614H14.6573V17.751H14.4515V19.4614Z" fill="black"/>
<path id="Fill 14" fill-rule="evenodd" clip-rule="evenodd" d="M15.0093 19.4612H15.2853V18.2563H15.0093V19.4612ZM14.9863 17.9364C14.9863 17.9036 15.0003 17.8753 15.0273 17.8522C15.0543 17.8291 15.0953 17.8179 15.1493 17.8179C15.2033 17.8179 15.2433 17.8291 15.2713 17.8522C15.2993 17.8753 15.3133 17.9036 15.3133 17.9364C15.3133 17.97 15.2993 17.9976 15.2713 18.0199C15.2433 18.0423 15.2033 18.0535 15.1493 18.0535C15.0953 18.0535 15.0543 18.0423 15.0273 18.0199C15.0003 17.9976 14.9863 17.97 14.9863 17.9364Z" fill="black"/>
<path id="Fill 15" fill-rule="evenodd" clip-rule="evenodd" d="M15.9428 19.3038C16.008 19.3038 16.0695 19.2874 16.1273 19.2539C16.1858 19.2203 16.2278 19.1771 16.2541 19.1234V18.8766H16.0921C15.8377 18.8766 15.711 18.9504 15.711 19.098C15.711 19.1622 15.7327 19.2129 15.7762 19.2494C15.819 19.2859 15.8745 19.3038 15.9428 19.3038ZM16.2864 19.4611C16.2751 19.4373 16.2653 19.3948 16.2578 19.3336C16.1611 19.4335 16.0463 19.4828 15.9128 19.4828C15.7927 19.4828 15.6952 19.4492 15.6187 19.3821C15.5422 19.315 15.5039 19.23 15.5039 19.1271C15.5039 19.0011 15.5519 18.9042 15.6479 18.8348C15.7432 18.7655 15.8782 18.7305 16.0523 18.7305H16.2541V18.6358C16.2541 18.5634 16.2323 18.5068 16.1896 18.4635C16.1461 18.421 16.0823 18.4002 15.9975 18.4002C15.924 18.4002 15.8617 18.418 15.8115 18.4553C15.762 18.4926 15.7365 18.5373 15.7365 18.5903H15.5287C15.5287 18.5299 15.5497 18.4717 15.5924 18.4158C15.6359 18.3599 15.6937 18.3159 15.7672 18.2831C15.8407 18.2503 15.9218 18.2339 16.0103 18.2339C16.1498 18.2339 16.2593 18.2689 16.3381 18.3383C16.4176 18.4076 16.4581 18.503 16.4611 18.6246V19.1793C16.4611 19.2896 16.4754 19.3776 16.5039 19.4432V19.4611H16.2864Z" fill="black"/>
<path id="Fill 16" fill-rule="evenodd" clip-rule="evenodd" d="M16.9739 18.2563L16.9806 18.4076C17.0723 18.292 17.1931 18.2339 17.3415 18.2339C17.5957 18.2339 17.724 18.3778 17.7262 18.6648V19.4611H17.5204V18.6641C17.5197 18.5769 17.5003 18.5127 17.4608 18.471C17.422 18.4292 17.3616 18.4091 17.2788 18.4091C17.2125 18.4091 17.1536 18.427 17.1029 18.462C17.0529 18.4978 17.0134 18.5448 16.9851 18.6022V19.4611H16.7793V18.2563H16.9739Z" fill="black"/>
<path id="Fill 17" fill-rule="evenodd" clip-rule="evenodd" d="M18.3178 17.9644V18.2559H18.5429V18.4154H18.3178V19.1633C18.3178 19.2117 18.3274 19.2475 18.3476 19.2721C18.3677 19.296 18.402 19.3079 18.4505 19.3079C18.4743 19.3079 18.5064 19.3034 18.5481 19.2945V19.4608C18.4937 19.4757 18.4415 19.4831 18.3901 19.4831C18.2984 19.4831 18.229 19.4555 18.1821 19.3996C18.1351 19.3437 18.112 19.2647 18.112 19.1625V18.4154H17.8928V18.2559H18.112V17.9644H18.3178Z" fill="black"/>
<path id="Fill 18" fill-rule="evenodd" clip-rule="evenodd" d="M7.10726 15.277C6.78964 15.1853 6.55776 15.0734 6.41312 14.94C6.26847 14.8073 6.19615 14.6425 6.19615 14.4471C6.19615 14.2257 6.28487 14.0423 6.46158 13.8976C6.63828 13.753 6.86867 13.6807 7.152 13.6807C7.34511 13.6807 7.51659 13.7179 7.66795 13.7925C7.8193 13.8671 7.93636 13.97 8.01912 14.1012C8.10263 14.2324 8.14364 14.3763 8.14364 14.5321H7.77159C7.77159 14.3614 7.71716 14.2272 7.60905 14.1295C7.50094 14.0326 7.34883 13.9834 7.152 13.9834C6.96858 13.9834 6.82617 14.0236 6.72403 14.1042C6.62188 14.1854 6.57044 14.2973 6.57044 14.4397C6.57044 14.5545 6.6189 14.6514 6.71657 14.7312C6.8135 14.8102 6.97902 14.8826 7.21239 14.9489C7.44576 15.0145 7.62843 15.0869 7.7604 15.1659C7.89237 15.2449 7.99079 15.3374 8.05417 15.4432C8.11754 15.5484 8.1496 15.6729 8.1496 15.8153C8.1496 16.0434 8.06088 16.2261 7.88342 16.3626C7.70597 16.4998 7.46813 16.5683 7.17064 16.5683C6.97827 16.5683 6.79784 16.5311 6.63083 16.4573C6.46307 16.3834 6.33408 16.282 6.24312 16.1531C6.1529 16.0248 6.10742 15.8787 6.10742 15.7154H6.48022C6.48022 15.8854 6.54285 16.0196 6.66811 16.118C6.79337 16.2164 6.96113 16.2656 7.17064 16.2656C7.36673 16.2656 7.51659 16.2254 7.62098 16.1456C7.72536 16.0658 7.7768 15.957 7.7768 15.8198C7.7768 15.6818 7.72909 15.5752 7.63216 15.4999C7.53598 15.4246 7.36076 15.35 7.10726 15.277Z" fill="black"/>
<path id="Fill 19" fill-rule="evenodd" clip-rule="evenodd" d="M9.45297 15.277C9.13534 15.1853 8.90346 15.0734 8.75882 14.94C8.61417 14.8073 8.54185 14.6425 8.54185 14.4471C8.54185 14.2257 8.63058 14.0423 8.80728 13.8976C8.98399 13.753 9.21438 13.6807 9.4977 13.6807C9.69081 13.6807 9.8623 13.7179 10.0137 13.7925C10.165 13.8671 10.2821 13.97 10.3648 14.1012C10.4483 14.2324 10.4893 14.3763 10.4893 14.5321H10.1173C10.1173 14.3614 10.0629 14.2272 9.95475 14.1295C9.84664 14.0326 9.69454 13.9834 9.4977 13.9834C9.31428 13.9834 9.17188 14.0236 9.06973 14.1042C8.96758 14.1854 8.91614 14.2973 8.91614 14.4397C8.91614 14.5545 8.9646 14.6514 9.06227 14.7312C9.1592 14.8102 9.32472 14.8826 9.55809 14.9489C9.79146 15.0145 9.97413 15.0869 10.1061 15.1659C10.2381 15.2449 10.3365 15.3374 10.3999 15.4432C10.4632 15.5484 10.4953 15.6729 10.4953 15.8153C10.4953 16.0434 10.4066 16.2261 10.2291 16.3626C10.0517 16.4998 9.81383 16.5683 9.51634 16.5683C9.32398 16.5683 9.14354 16.5311 8.97653 16.4573C8.80877 16.3834 8.67979 16.282 8.58882 16.1531C8.49861 16.0248 8.45312 15.8787 8.45312 15.7154H8.82592C8.82592 15.8854 8.88855 16.0196 9.01381 16.118C9.13907 16.2164 9.30683 16.2656 9.51634 16.2656C9.71243 16.2656 9.8623 16.2254 9.96668 16.1456C10.0711 16.0658 10.1225 15.957 10.1225 15.8198C10.1225 15.6818 10.0748 15.5752 9.97786 15.4999C9.88168 15.4246 9.70647 15.35 9.45297 15.277Z" fill="black"/>
<path id="Fill 20" fill-rule="evenodd" clip-rule="evenodd" d="M11.4563 15.4915H12.4121L11.9335 14.177L11.4563 15.4915ZM12.5217 15.7942H11.3444L11.0798 16.5301H10.6973L11.7709 13.7192H12.0953L13.1704 16.5301H12.7901L12.5217 15.7942Z" fill="black"/>
<path id="Fill 21" fill-rule="evenodd" clip-rule="evenodd" d="M15.1377 15.231H13.9194V16.2272H15.3345V16.5299H13.5488V13.7197H15.3151V14.0224H13.9194V14.9283H15.1377V15.231Z" fill="black"/>
<path id="Fill 22" fill-rule="evenodd" clip-rule="evenodd" d="M17.8562 16.5299H17.4968V14.1499L16.7773 14.4139V14.0895L17.8003 13.7056H17.8562V16.5299Z" fill="black"/>
<path id="Fill 23" fill-rule="evenodd" clip-rule="evenodd" d="M19.7787 13.9744C19.6386 13.9744 19.5252 14.0177 19.438 14.1049C19.3515 14.1914 19.3075 14.3099 19.3075 14.4591C19.3075 14.6015 19.3508 14.717 19.4358 14.8058C19.5215 14.8937 19.6356 14.9377 19.7787 14.9377C19.9219 14.9377 20.036 14.8937 20.1217 14.8058C20.2067 14.717 20.2499 14.6015 20.2499 14.4591C20.2499 14.3159 20.2052 14.1996 20.1165 14.1094C20.0278 14.0192 19.9152 13.9744 19.7787 13.9744ZM20.3156 15.7639C20.3156 15.6073 20.2656 15.479 20.1657 15.3799C20.0658 15.2807 19.9361 15.2315 19.775 15.2315C19.614 15.2315 19.485 15.28 19.388 15.3776C19.2904 15.4753 19.2419 15.6043 19.2419 15.7639C19.2419 15.9234 19.2896 16.0487 19.3843 16.1404C19.4783 16.2321 19.6102 16.2776 19.7787 16.2776C19.9457 16.2776 20.077 16.2313 20.1724 16.1396C20.2678 16.0472 20.3156 15.9219 20.3156 15.7639ZM20.6071 14.4531C20.6071 14.5933 20.5698 14.7185 20.496 14.8274C20.4222 14.937 20.3215 15.0227 20.1955 15.0846C20.3424 15.1472 20.4587 15.2397 20.5445 15.3605C20.6295 15.4813 20.6727 15.6185 20.6727 15.7713C20.6727 16.0151 20.5907 16.2082 20.4267 16.3529C20.2626 16.4968 20.0464 16.5691 19.7787 16.5691C19.5088 16.5691 19.2919 16.4968 19.1293 16.3514C18.966 16.2067 18.8848 16.0136 18.8848 15.7713C18.8848 15.62 18.9265 15.4828 19.0093 15.3605C19.0928 15.2382 19.2076 15.1458 19.3537 15.0824C19.2292 15.0205 19.1308 14.9355 19.0585 14.8259C18.9869 14.7163 18.9504 14.5925 18.9504 14.4531C18.9504 14.2167 19.0264 14.0281 19.1785 13.8894C19.3299 13.7507 19.5304 13.6807 19.7787 13.6807C20.0255 13.6807 20.2253 13.7507 20.3782 13.8894C20.5303 14.0281 20.6071 14.2167 20.6071 14.4531Z" fill="black"/>
<path id="Fill 24" fill-rule="evenodd" clip-rule="evenodd" d="M12.9199 10.0676C12.8289 10.0676 12.7425 10.0319 12.6783 9.96773L11.0962 8.38558C10.9627 8.25212 10.9627 8.03516 11.0962 7.90169C11.2297 7.76823 11.4466 7.76823 11.5801 7.90169L12.9199 9.24152L15.2596 6.90185C15.3938 6.76839 15.61 6.76839 15.7435 6.90185C15.8769 7.03531 15.8769 7.25228 15.7435 7.38574L13.1615 9.96773C13.0974 10.0319 13.0109 10.0676 12.9199 10.0676Z" fill="#5BB160"/>
</g>
</svg>
